appearance/.icons/Tela-black/scalable/apps/com.github.qarmin.czkawka.svg

<svg width="64" height="64" version="1.1" xmlns="http://www.w3.org/2000/svg" xmlns:xlink="http://www.w3.org/1999/xlink">
 <defs>
  <linearGradient id="i" x1="-444.82" x2="-96.628" y1="-126.47" y2="-126.47" gradientTransform="matrix(.10498 0 0 .10477 50.7 51.197)" xlink:href="#h"/>
  <linearGradient id="h" gradientUnits="userSpaceOnUse">
   <stop stop-color="#c0bfbc" offset="0"/>
   <stop stop-color="#c0bfbc" offset=".89545"/>
   <stop stop-color="#deddda" offset=".94186"/>
   <stop stop-color="#9a9996" offset="1"/>
  </linearGradient>
  <linearGradient id="j" x1="-444.82" x2="-96.628" y1="-126.47" y2="-126.47" gradientTransform="matrix(.10498 0 0 -.10477 50.7 51.197)" xlink:href="#h"/>
  <linearGradient id="c" gradientUnits="userSpaceOnUse">
   <stop offset="0"/>
   <stop stop-opacity="0" offset="1"/>
  </linearGradient>
  <linearGradient id="n" x1="-444.82" x2="-96.628" y1="-126.47" y2="-126.47" gradientTransform="matrix(.10498 0 0 .10477 50.7 51.197)" xlink:href="#c"/>
  <linearGradient id="o" x1="-444.82" x2="-96.628" y1="-126.47" y2="-126.47" gradientTransform="matrix(.10498 0 0 -.10477 50.7 51.197)" xlink:href="#c"/>
 </defs>
 <g stroke-width=".57118">
  <path d="m25.705 34.83h4.5694v18.278h-4.5694z" fill="#f6f5f4"/>
  <path d="m29.52 42.113h5.8791v1.6778h-5.8791zm0-4.1901h5.8791v1.6756h-5.8791zm0-4.1901h5.8791v1.6756h-5.8791zm0-4.1924h5.8791v1.6778h-5.8791zm0-4.1901h5.8791v1.6756h-5.8791zm-19.317-4.1901h25.197v1.6756h-25.197zm0-4.1924h15.957v1.6778h-15.957zm0-4.1901h15.957v1.6756h-15.957z" fill="url(#i)"/>
  <path d="m10.203 46.305h17.637v-20.968h-17.637z" fill="url(#j)"/>
  <path d="m10.203 46.305h17.637v-20.968h-17.637z" fill="url(#j)"/>
  <path d="m29.52 42.113h5.8791v1.6778h-5.8791zm0-4.1901h5.8791v1.6756h-5.8791zm0-4.1901h5.8791v1.6756h-5.8791zm0-4.1924h5.8791v1.6778h-5.8791zm0-4.1901h5.8791v1.6756h-5.8791zm-19.317-4.1901h25.197v1.6756h-25.197zm0-4.1924h15.957v1.6778h-15.957zm0-4.1901h15.957v1.6756h-15.957z" fill="url(#n)"/>
  <path d="m10.203 46.305h17.637v-20.968h-17.637z" fill="url(#o)"/>
  <path d="m10.203 46.305h17.637v-20.968h-17.637z" fill="url(#o)"/>
  <path d="m28.309 11.361v9.2214c0 1.8563 1.5127 3.32 3.3691 3.32l9.2214-0.0022z" fill="#deddda"/>
  <path d="m7.3534 11.361h20.955l12.247 12.617v30.844c0 1.8563-1.1714 3.4784-3.0277 3.4784h-30.174c-1.8586 0-3.3534-1.4949-3.3534-3.3534v-40.232c0-1.8586 1.4949-3.3534 3.3534-3.3534z" fill="#deddda"/>
 </g>
 <g fill="#c0bfbc" stroke-width=".57118">
  <path d="m9.7118 49.681h12.566v2.2847h-12.566z"/>
  <path d="m9.7118 45.111h27.417v2.2847h-27.417z"/>
  <path d="m9.7118 40.542h27.417v2.2847h-27.417z"/>
 </g>
 <g stroke-width=".57118">
  <path d="m23.42 27.976h9.1388v2.2847h-9.1388z" fill="#9a9996"/>
  <path d="m9.7118 16.553h12.566v2.2847h-12.566z" fill="#c0bfbc"/>
  <path d="m9.7118 21.122h13.708v2.2847h-13.708z" fill="#c0bfbc"/>
  <path d="m23.42 32.546h12.566v2.2847h-12.566z" fill="#9a9996"/>
  <path d="m26.454 5.7002c-1.8563 0-3.0344 1.5707-3.0344 3.4271v43.981h3.4271v-18.278h3.4271v13.708h3.4271v-13.708h3.4271v6.8541h3.4271v-6.8541h2.8559v18.278h3.4271v-18.278h2.8559v21.705h3.4271v-21.705h3.4271v18.278h3.4271v-18.278l0.024561-16.593-12.59-12.537z" fill="#f6f5f4"/>
  <path d="m47.41 5.7002v9.2192c0 1.8586 1.5127 3.3222 3.3713 3.3222l9.2192-0.0022z" fill="#deddda"/>
  <path d="m49.694 34.83h3.4271v18.278h-3.4271z" fill="#f6f5f4"/>
  <path d="m9.7118 25.691h11.424v7.9965h-11.424z" fill="#6155be"/>
 </g>
 <g fill="#c0bfbc" stroke-width=".57118">
  <path d="m27.989 9.6984h12.566v2.2847h-12.566z"/>
  <path d="m27.989 14.268h14.851v2.2847h-14.851z"/>
  <path d="m41.698 24.549h13.708v2.2847h-13.708z"/>
  <path d="m41.698 19.98h9.1388v2.2847h-9.1388z"/>
  <path d="m9.7118 35.973h13.708v2.2847h-13.708z"/>
  <path d="m27.989 29.118h27.417v2.2847h-27.417z"/>
 </g>
 <path d="m27.989 18.837h11.424v7.9965h-11.424z" fill="#8770d6" stroke-width=".57118"/>
</svg>

<svg xmlns="http://www.w3.org/2000/svg" xmlns:xlink="http://www.w3.org/1999/xlink" width="64" height="64"><defs><linearGradient xlink:href="#a" id="c" x1="-444.82" x2="-96.628" y1="-126.47" y2="-126.47" gradientTransform="matrix(.10498 0 0 .10477 50.7 51.197)"/><linearGradient id="a" gradientUnits="userSpaceOnUse"><stop offset="0" stop-color="#c0bfbc"/><stop offset=".895" stop-color="#c0bfbc"/><stop offset=".942" stop-color="#deddda"/><stop offset="1" stop-color="#9a9996"/></linearGradient><linearGradient xlink:href="#a" id="e" x1="-444.82" x2="-96.628" y1="-126.47" y2="-126.47" gradientTransform="matrix(.10498 0 0 -.10477 50.7 51.197)"/><linearGradient id="b" gradientUnits="userSpaceOnUse"><stop offset="0"/><stop offset="1" stop-opacity="0"/></linearGradient><linearGradient xlink:href="#b" id="f" x1="-444.82" x2="-96.628" y1="-126.47" y2="-126.47" gradientTransform="matrix(.10498 0 0 .10477 50.7 51.197)"/><linearGradient xlink:href="#b" id="g" x1="-444.82" x2="-96.628" y1="-126.47" y2="-126.47" gradientTransform="matrix(.10498 0 0 -.10477 50.7 51.197)"/></defs><g stroke-width=".571"><path fill="#f6f5f4" d="M25.705 34.83h4.57v18.278h-4.57z"/><path fill="url(#c)" d="M29.52 42.113h5.88v1.678h-5.88zm0-4.19h5.88v1.675h-5.88zm0-4.19h5.88v1.675h-5.88zm0-4.193h5.88v1.678h-5.88zm0-4.19h5.88v1.676h-5.88zm-19.317-4.19H35.4v1.676H10.203zm0-4.192H26.16v1.678H10.203zm0-4.19H26.16v1.675H10.203z"/><path fill="url(#e)" d="M10.203 46.305H27.84V25.337H10.203z"/><path fill="url(#e)" d="M10.203 46.305H27.84V25.337H10.203z"/><path fill="url(#f)" d="M29.52 42.113h5.88v1.678h-5.88zm0-4.19h5.88v1.675h-5.88zm0-4.19h5.88v1.675h-5.88zm0-4.193h5.88v1.678h-5.88zm0-4.19h5.88v1.676h-5.88zm-19.317-4.19H35.4v1.676H10.203zm0-4.192H26.16v1.678H10.203zm0-4.19H26.16v1.675H10.203z"/><path fill="url(#g)" d="M10.203 46.305H27.84V25.337H10.203z"/><path fill="url(#g)" d="M10.203 46.305H27.84V25.337H10.203z"/><path fill="#deddda" d="M28.309 11.361v9.221c0 1.857 1.513 3.32 3.37 3.32l9.22-.002z"/><path fill="#deddda" d="M7.353 11.361h20.955l12.247 12.617v30.844c0 1.856-1.171 3.478-3.027 3.478H7.354A3.345 3.345 0 0 1 4 54.947V14.715a3.345 3.345 0 0 1 3.354-3.353z"/></g><path fill="#c0bfbc" stroke-width=".571" d="M9.712 49.681h12.566v2.285H9.712zm0-4.57h27.417v2.285H9.712zm0-4.569h27.417v2.285H9.712z"/><g stroke-width=".571"><path fill="#9a9996" d="M23.42 27.976h9.139v2.285H23.42z"/><path fill="#c0bfbc" d="M9.712 16.553h12.566v2.285H9.712zm0 4.569H23.42v2.285H9.712z"/><path fill="#9a9996" d="M23.42 32.546h12.566v2.285H23.42z"/><path fill="#f6f5f4" d="M26.454 5.7c-1.856 0-3.034 1.57-3.034 3.427v43.981h3.427V34.83h3.427v13.708H33.7V34.83h3.427v6.854h3.427V34.83h2.856v18.278h3.427V34.83h2.856v21.705h3.427V34.83h3.427v18.278h3.427V34.83L60 18.237 47.41 5.7z"/><path fill="#deddda" d="M47.41 5.7v9.22c0 1.858 1.513 3.322 3.371 3.322l9.22-.003z"/><path fill="#f6f5f4" d="M49.694 34.83h3.427v18.278h-3.427z"/><path fill="#6155be" d="M9.712 25.691h11.424v7.997H9.712z"/></g><path fill="#c0bfbc" stroke-width=".571" d="M27.989 9.698h12.566v2.285H27.989zm0 4.57H42.84v2.285H27.989zm13.709 10.281h13.708v2.285H41.698zm0-4.569h9.139v2.285h-9.139zM9.712 35.973H23.42v2.285H9.712zm18.277-6.855h27.417v2.285H27.989z"/><path fill="#8770d6" d="M27.989 18.837h11.424v7.997H27.989z"/></svg>
